X: 772
T: Ozark Rag
C:East Texas Seranaders
B: jims roots
M:4/4
L:1/8
R: Country Rag
Q: 1/4=100
K:Fmaj
V:1 
"F"fgfd cAdc | AFGE FGA=B | "C"[c2E2][cE][cD]- [cD][cD][c2_E2] | [c4=E4]z2 DE||
|:"C"[cE][cE][D2c2][c2E2][D2c2] |[cE][cE] [cD][cE]- [c2E2][F2A2]- | "F"[F2A2] [GA][^GA] [AA][FA] G^G | [AA][FA] [=GA][^GA] [A2A2] dA |
"G"=BdBA G2 dA | =BdA^F G2 AB | [1"C"cdcA GcAG | EGED C2[AD]:| [2 "C"cAdc AFGE | "F"F2F2E2_E2 ||
|:"D"D_EEF ^Fd3 | dAcA =BGAD | "G"G,_A,=A,_B, =B,G2D | F2DE EGD_B, |
"C"CCD_Ec2A | cAdc AFGE | "F"F2 dc cAGE | [1 F2F2E2_E2:| [2 F6DE||
"D"^FDEF DEFD | E^FDEF2G,A, | "G"B,G,A,B, G,A,B,G, | A,=B,G,A, B,2G,2 |
"C"CCD_E =Ec2A | cAdc AFGD | "F"F2dc cAGD | F2 F2 E2 _E2 | "D" DE^FD EFDE |
FDEF- FED=B, | "G"G,A,=B,G, A,B,G,A, | =B,G,A,B,- B,A, G,2 |
"C"CCD_E =Ec2A | cAdc AFGE | [1 "F"F2dc- cAGD | F6[cD]| [2 "F"F2 CD- "C"DC D2 | "F"[F4A4]z4|]
% abcbook-tune_id 6298c2799d6fb1dbc7a0ed1f


% abcbook-boost 0
% abcbook-tablature 
% abcbook-transpose 
% abcbook-lastupdated 1654178426294
% abcbook-soundfonts 
% abcbook-repeats 1


